X: 0561
U: Q=!diminuendo(!
U: q=!diminuendo)!
U: P=!crescendo(!
U: p=!crescendo)!
M: 3/4
L: 1/8
K: C
V: 1
!p!G2 |\
e4e2 | (e2d2).c2 | (a4g2) | (d4^d2) | e4e2 | (e2g2).c2 | (e2d2).d2 | d4 (G2 |\
e4)e2 | (e2f2^f2) | (Pa4g2)p | !f!c'4Qg2 | qb2a2fd | (a2g2).B2 | (d2c2).c2 | c2z2 H:|
|: !f!G2 |\
d2ddd2 | d2z2z2 | f2fff2 | e4G2 | e2eee2 | e2z2z2 | a2aaa2 | (g4^f2) | =f2fff2 | e2z2c2 | (e4d2) | c2z2 :|
|: !p!C2 |\
V: 2
c4c2 | (c2G2).E2 | (f4e2) | (B4G2) | c4c2 | (c2e2).G2 | (c2B2).B2 | G2B2(G2 |\
c4)c2 | c2c2c2 | (Pf4e2p) | !f!e4Qe2 | (qd2f2).d2 | (f2e2).G2 | (^F2G2) G2 | E2z2 :|
|: z2 |\
|: C2 |

